**kern	**kern
*staff2	*staff1
*clefF4	*clefG2
*k[]	*k[]
*M2/4	*M2/4
*C:	*C:
=	=
16CLL	16eLL
16E	16g
16G	16cc
16cJJ	16eeJJ
16CLL	16cLL
16E	16e
16G	16g
16cJJ	16ccJJ
=350	=350
16CLL	16fLL
16F	16a
16A	16cc
16cJJ	16ffJJ
16CLL	16eLL
16E	16g
16G	16cc
16cJJ	16eeJJ
=351	=351
16CLL	16eLL
16E	16g
16G	16cc
16cJJ	16eeJJ
16CLL	16dLL
16F	16f
16G	16g
16BJJ	16ddJJ
=352	=352
16CLL	16cLL
16E	16e
16G	16g
16cJJ	16ccJJ
16CLL	16cLL
16E	16e
16G	16g
16cJJ	16ccJJ
=353	=353
16BBLL	16dLL
16D	16g
16G	16b
16BJJ	16ddJJ
16CLL	16eLL
16E	16g
16G	16cc
16cJJ	16eeJJ
=354	=354
16AALL	16fLL
16C	16a
16F	16cc
16AJJ	16ffJJ
16FFLL	16fLL
16C	16a
16D	16dd
16FJJ	16ffJJ
=355	=355
16GGLL	16dLL
16C	16g
16D	16cc
16GJJ	16ddJJ
16GGLL	16dLL
16BB	16g
16D	16b
16GJJ	16ddJJ
=356	=356
16CLL	16eLL
16E	16g
16G	16cc
16cJJ	16eeJJ
16CLL	16cLL
16E	16e
16G	16g
16cJJ	16ccJJ
=357	=357
16BBLL	16dLL
16D	16g
16G	16b
16BJJ	16ddJJ
16CLL	16eLL
16E	16g
16G	16cc
16cJJ	16eeJJ
=358	=358
16AALL	16fLL
16C	16a
16F	16cc
16AJJ	16ffJJ
16FFLL	16fLL
16C	16a
16D	16dd
16FJJ	16ffJJ
=359	=359
16GGLL	16dLL
16C	16g
16D	16cc
16GJJ	16ddJJ
16GGLL	16dLL
16BB	16g
16D	16b
16GJJ	16ddJJ
=360	=360
16CCLL	8cc'L
16EE	.
16GG	(16eL
16CJJ	16gJJ
16CCLL	16ccLL
16EE	16ee
16GG	16dd
16CJJ	16ccJJ)
=361	=361
16CCLL	8r
16DD	.
16FF	(16bLL
16BBJJ	16ddJJ
16CCLL	16ffLL
16DD	16aa
16FF	16gg
16BBJJ	16ffJJ)
=362	=362
16CCLL	8r
16EE	.
16GG	(16eeLL
16CJJ	16ggJJ
16CCLL	16cccLL
16EE	16eee
16GG	16ddd
16CJJ	16cccJJ
=363	=363
16CCLL	16bbLL
16FF	16aa
16GG	16gg
16DJJ	16ffJJ
16CCLL	16eeLL
16FF	16dd
16GG	16cc
16DJJ	16bJJ)
=364	=364
16CCLL	8cc'L
16EE	.
16GG	(16eL
16CJJ	16gJJ
16CCLL	16ccLL
16EE	16ee
16GG	16dd
16CJJ	16ccJJ)
=365	=365
16CCLL	8r
16DD	.
16FF	(16bLL
16BBJJ	16ddJJ
16CCLL	16ffLL
16DD	16aa
16FF	16gg
16BBJJ	16ffJJ)
=366	=366
16CCLL	8r
16EE	.
16GG	(16eeLL
16CJJ	16ggJJ
16CCLL	16cccLL
16EE	16eee
16GG	16ddd
16CJJ	16cccJJ
=367	=367
16CCLL	16bbLL
16FF	16aa
16GG	16gg
16DJJ	16ffJJ
16CCLL	16eeLL
16FF	16dd
16GG	16cc
16DJJ	16bJJ)
=368	=368
16CCLL	8cc'L
16EE	.
16GG	(16eL
16CJJ	16gJJ
16CCLL	16ccLL
16EE	16ee
16GG	16dd
16CJJ	16ccJJ
=369	=369
16CCLL	16bLL
16FF	16a
16GG	16g
16DJJ	16fJJ
16CCLL	16eLL
16FF	16d
16GG	16c
16DJJ	16BJJ)
=370	=370
4CC 4EE 4GG 4C	16cLL
.	16G
.	16E
.	16GJJ
4r	16cLL
.	16e
.	16g
.	16eJJ
=371	=371
4CC 4EE 4GG 4C	16cLL
.	16G
.	16E
.	16GJJ
4r	16cLL
.	16e
.	16g
.	16eJJ
=372	=372
4CC 4EE 4GG 4C	4c
4r	4r
==	==
*-	*-
